packages/symbols/svgs/outline/cart-shopping-outline.svg

<svg width="24" height="24" viewBox="0 0 24 24" fill="none" xmlns="http://www.w3.org/2000/svg">
<g clip-path="url(#clip0_1150_5534)">
<path fill-rule="evenodd" clip-rule="evenodd" d="M6 20C4.89543 20 4 20.8954 4 22C4 23.1046 4.89543 24 6 24C7.10457 24 8 23.1046 8 22C8 20.8954 7.10457 20 6 20ZM20 20C18.8954 20 18 20.8954 18 22C18 23.1046 18.8954 24 20 24C21.1046 24 22 23.1046 22 22C22 20.8954 21.1046 20 20 20Z" fill="black"/>
<path fill-rule="evenodd" clip-rule="evenodd" d="M0 2C0 1.44772 0.447715 1 1 1H4C4.5012 1 4.92499 1.37103 4.99123 1.86784L5.54218 6H22C22.2996 6 22.5834 6.13432 22.7733 6.36601C22.9633 6.5977 23.0393 6.90234 22.9806 7.19612L20.9806 17.1961C20.8871 17.6635 20.4767 18 20 18H6C5.4988 18 5.07501 17.629 5.00877 17.1322L3.12448 3H1C0.447715 3 0 2.55228 0 2ZM5.80885 8L6.87552 16H19.1802L20.7802 8H5.80885Z" fill="black"/>
</g>
<defs>
<clipPath id="clip0_1150_5534">
<rect width="24" height="24" fill="white"/>
</clipPath>
</defs>
</svg>

<svg width="24" height="24" viewBox="0 0 24 24" xmlns="http://www.w3.org/2000/svg"><g clip-path="url(#a)" fill-rule="evenodd" clip-rule="evenodd"><path d="M6 20a2 2 0 1 0 0 4 2 2 0 0 0 0-4Zm14 0a2 2 0 1 0 0 4 2 2 0 0 0 0-4ZM0 2a1 1 0 0 1 1-1h3a1 1 0 0 1 .991.868L5.542 6H22a1 1 0 0 1 .98 1.196l-2 10A1 1 0 0 1 20 18H6a1 1 0 0 1-.991-.868L3.124 3H1a1 1 0 0 1-1-1Zm5.809 6 1.067 8H19.18l1.6-8H5.81Z"/></g><defs><clipPath id="a"><path fill="#fff" d="M0 0h24v24H0z"/></clipPath></defs></svg>
